scalable/status/dialog-error.svg

<?xml version="1.0" encoding="UTF-8" standalone="no"?>
<!-- Created with Inkscape (http://www.inkscape.org/) -->
<svg id="svg2" xmlns:rdf="http://www.w3.org/1999/02/22-rdf-syntax-ns#" xmlns="http://www.w3.org/2000/svg" height="100%" width="100%" version="1.1" xmlns:cc="http://creativecommons.org/ns#" viewBox="0 0 512 512" xmlns:dc="http://purl.org/dc/elements/1.1/">
 <metadata id="metadata72">
  <rdf:RDF>
   <cc:Work rdf:about="">
    <dc:format>image/svg+xml</dc:format>
    <dc:type rdf:resource="http://purl.org/dc/dcmitype/StillImage"/>
   </cc:Work>
  </rdf:RDF>
 </metadata>
 <path id="path4" fill="#cd1c30" d="m471.95 253.05c0 120.9-98.01 218.91-218.91 218.91s-218.91-98.01-218.91-218.91 98.01-218.91 218.91-218.91 218.91 98.01 218.91 218.91" fill-rule="evenodd"/>
 <path id="path6" d="m191.97 126.91-64.84 64.09c21.477 21.482 42.929 42.985 64.38 64.5l-64.12 64.13c49.959 50.871 99.96 101.01 149.97 151 101.46-11.215 182.02-91.77 193.25-193.22-50.16-50.15-100.31-100.28-150.5-150.5l-64.06 64.06-64.06-64.06" fill-opacity="0.235"/>
 <g id="g8" fill-rule="evenodd">
  <path id="path10" d="m256 1c-140.83 0-255 114.17-255 255s114.17 255 255 255 255-114.17 255-255-114.17-255-255-255m8.827 44.931c120.9 0 218.9 98 218.9 218.9s-98 218.9-218.9 218.9-218.93-98-218.93-218.9 98.03-218.9 218.93-218.9" fill-opacity="0.067"/>
  <g id="g12" fill-opacity="0.129">
   <path id="path14" d="m256 4.43c-138.94 0-251.57 112.63-251.57 251.57s112.63 251.57 251.57 251.57 251.57-112.63 251.57-251.57-112.63-251.57-251.57-251.57m5.885 38.556c120.9 0 218.9 98 218.9 218.9s-98 218.9-218.9 218.9-218.93-98-218.93-218.9 98.03-218.9 218.93-218.9"/>
   <path id="path16" d="m256 8.36c-136.77 0-247.64 110.87-247.64 247.64s110.87 247.64 247.64 247.64 247.64-110.87 247.64-247.64-110.87-247.64-247.64-247.64m2.942 31.691c120.9 0 218.9 98 218.9 218.9s-98 218.9-218.9 218.9-218.93-98-218.93-218.9 98.03-218.9 218.93-218.9"/>
  </g>
  <path id="path18" d="m253.04 7.86c-135.42 0-245.19 109.78-245.19 245.19 0 135.42 109.78 245.19 245.19 245.19 135.42 0 245.19-109.78 245.19-245.19 0-135.42-109.78-245.19-245.19-245.19zm0 26.297c120.9 0 218.9 98 218.9 218.9s-98 218.9-218.9 218.9-218.93-98-218.93-218.9 98.03-218.9 218.93-218.9z" stroke-opacity="0.31" stroke="#000" stroke-width="4.904" fill="#fff"/>
 </g>
 <text id="text20" style="word-spacing:0;letter-spacing:0" font-size="129.23px" line-height="125%" y="231.36" x="729.64001" font-family="Gentium Book Basic">
  <tspan id="tspan22" y="231.36" x="729.64001"/>
 </text>
 <text id="text24" style="text-anchor:middle" transform="scale(4.0128 .2492)" font-size="46.954px" y="579.26001" x="378.91" font-family="Arial"/>
 <text id="text26" style="word-spacing:0;letter-spacing:0" font-size="129.23px" line-height="125%" y="151.36" x="1310.91" font-family="Gentium Book Basic">
  <tspan id="tspan28" y="151.36" x="1310.91"/>
 </text>
 <text id="text30" style="text-anchor:middle" transform="scale(4.0128 .2492)" font-size="46.954px" y="258.22" x="523.76001" font-family="Arial"/>
 <text id="text32" style="word-spacing:0;letter-spacing:0" font-size="129.23px" line-height="125%" y="-29.9" x="239.33" font-family="Gentium Book Basic">
  <tspan id="tspan34" y="-29.9" x="239.33"/>
 </text>
 <text id="text36" style="text-anchor:middle" transform="scale(4.0128 .2492)" font-size="46.954px" y="-469.13" x="256.72" font-family="Arial"/>
 <text id="text38" style="word-spacing:0;letter-spacing:0" font-size="129.23px" line-height="125%" y="-246.37" x="1337.38" font-family="Gentium Book Basic">
  <tspan id="tspan40" y="-246.37" x="1337.38"/>
 </text>
 <text id="text42" style="text-anchor:middle" transform="scale(4.0128 .2492)" font-size="46.954px" y="-1337.8" x="530.35999" font-family="Arial"/>
 <text id="text44" style="word-spacing:0;letter-spacing:0" font-size="129.23px" line-height="125%" y="-326.37" x="1918.65" font-family="Gentium Book Basic">
  <tspan id="tspan46" y="-326.37" x="1918.65"/>
 </text>
 <text id="text48" style="text-anchor:middle" transform="scale(4.0128 .2492)" font-size="46.954px" y="-1658.83" x="675.21002" font-family="Arial"/>
 <text id="text50" style="word-spacing:0;letter-spacing:0" font-size="129.23px" line-height="125%" y="-798.77002" x="1529.53" font-family="Gentium Book Basic">
  <tspan id="tspan52" y="-798.77002" x="1529.53"/>
 </text>
 <text id="text54" style="text-anchor:middle" transform="scale(4.0128 .2492)" font-size="46.954px" y="-3554.48" x="578.23999" font-family="Arial"/>
 <text id="text56" style="word-spacing:0;letter-spacing:0" font-size="129.23px" line-height="125%" y="-878.78003" x="2110.79" font-family="Gentium Book Basic">
  <tspan id="tspan58" y="-878.78003" x="2110.79"/>
 </text>
 <text id="text60" style="text-anchor:middle" transform="scale(4.0128 .2492)" font-size="46.954px" y="-3875.52" x="723.09003" font-family="Arial"/>
 <text id="text62" style="word-spacing:0;letter-spacing:0" font-size="208.33px" line-height="125%" y="535.94" x="277.98999" font-family="Gentium Book Basic">
  <tspan id="tspan64" y="535.94" x="277.98999"/>
 </text>
 <path id="path66" d="m127.12 191 64.837-64.11 64.05 64.09 64.08-64.08 64.55 64.62-63.924 64.19 64.16 64.19-64.27 64.957-64.32-64.45-64.41 64.69-64.5-65.49 64.12-64.12" fill="#fff"/>
</svg>

<?xml version="1.0" encoding="UTF-8" standalone="no"?>
<!-- Created with Inkscape (http://www.inkscape.org/) -->

<svg
   xmlns:dc="http://purl.org/dc/elements/1.1/"
   xmlns:cc="http://creativecommons.org/ns#"
   xmlns:rdf="http://www.w3.org/1999/02/22-rdf-syntax-ns#"
   xmlns:svg="http://www.w3.org/2000/svg"
   xmlns="http://www.w3.org/2000/svg"
   xmlns:inkscape="http://www.inkscape.org/namespaces/inkscape"
   version="1.1"
   width="100%"
   height="100%"
   viewBox="0 0 512 512"
   id="svg2">
  <metadata
     id="metadata72">
    <rdf:RDF>
      <cc:Work
         rdf:about="">
        <dc:format>image/svg+xml</dc:format>
        <dc:type
           rdf:resource="http://purl.org/dc/dcmitype/StillImage" />
      </cc:Work>
    </rdf:RDF>
  </metadata>
  <defs
     id="defs70" />
  <path
     d="m 471.95,253.05 c 0,120.9 -98.01,218.91 -218.91,218.91 -120.9,0 -218.91,-98.01 -218.91,-218.91 0,-120.9 98.01,-218.91 218.91,-218.91 120.9,0 218.91,98.01 218.91,218.91"
     inkscape:connector-curvature="0"
     id="path4"
     style="fill:#cd1c30;fill-rule:evenodd" />
  <path
     d="M 191.97,126.91 127.126,191 c 21.477,21.482 42.929,42.985 64.38,64.5 l -64.12,64.13 c 49.959,50.871 99.96,101.01 149.97,151 101.46,-11.215 182.02,-91.77 193.25,-193.22 -50.16,-50.15 -100.31,-100.28 -150.5,-150.5 l -64.06,64.06 -64.06,-64.06"
     inkscape:connector-curvature="0"
     id="path6"
     style="fill-opacity:0.23500001" />
  <g
     id="g8"
     style="fill-rule:evenodd">
    <path
       d="M 256,1 C 115.17,1 1,115.17 1,256 1,396.83 115.17,511 256,511 396.83,511 511,396.83 511,256 511,115.17 396.83,1 256,1 m 8.827,44.931 c 120.9,0 218.9,98 218.9,218.9 0,120.9 -98,218.9 -218.9,218.9 -120.9,0 -218.93,-98 -218.93,-218.9 0,-120.9 98.03,-218.9 218.93,-218.9"
       inkscape:connector-curvature="0"
       id="path10"
       style="fill-opacity:0.06700003" />
    <g
       id="g12"
       style="fill-opacity:0.12900002">
      <path
         d="M 256,4.43 C 117.06,4.43 4.43,117.06 4.43,256 4.43,394.94 117.06,507.57 256,507.57 394.94,507.57 507.57,394.94 507.57,256 507.57,117.06 394.94,4.43 256,4.43 m 5.885,38.556 c 120.9,0 218.9,98 218.9,218.9 0,120.9 -98,218.9 -218.9,218.9 -120.9,0 -218.93,-98 -218.93,-218.9 0,-120.9 98.03,-218.9 218.93,-218.9"
         inkscape:connector-curvature="0"
         id="path14" />
      <path
         d="M 256,8.36 C 119.23,8.36 8.36,119.23 8.36,256 8.36,392.77 119.23,503.64 256,503.64 392.77,503.64 503.64,392.77 503.64,256 503.64,119.23 392.77,8.36 256,8.36 m 2.942,31.691 c 120.9,0 218.9,98 218.9,218.9 0,120.9 -98,218.9 -218.9,218.9 -120.9,0 -218.93,-98 -218.93,-218.9 0,-120.9 98.03,-218.9 218.93,-218.9"
         inkscape:connector-curvature="0"
         id="path16" />
    </g>
    <path
       d="M 253.04,7.86 C 117.62,7.86 7.85,117.64 7.85,253.05 c 0,135.42 109.78,245.19 245.19,245.19 135.42,0 245.19,-109.78 245.19,-245.19 C 498.23,117.63 388.45,7.86 253.04,7.86 z m 0,26.297 c 120.9,0 218.9,98 218.9,218.9 0,120.9 -98,218.9 -218.9,218.9 -120.9,0 -218.93,-98 -218.93,-218.9 0,-120.9 98.03,-218.9 218.93,-218.9 z"
       inkscape:connector-curvature="0"
       id="path18"
       style="fill:#ffffff;stroke:#000000;stroke-width:4.90399981;stroke-opacity:0.31000001" />
  </g>
  <text
     x="729.64001"
     y="231.36"
     id="text20"
     style="font-size:129.22999573px;line-height:125%;letter-spacing:0;word-spacing:0;font-family:Gentium Book Basic">
    <tspan
       x="729.64001"
       y="231.36"
       id="tspan22" />
  </text>
  <text
     x="378.91"
     y="579.26001"
     transform="scale(4.0128,0.2492)"
     id="text24"
     style="font-size:46.95399857px;text-anchor:middle;font-family:Arial" />
  <text
     x="1310.91"
     y="151.36"
     id="text26"
     style="font-size:129.22999573px;line-height:125%;letter-spacing:0;word-spacing:0;font-family:Gentium Book Basic">
    <tspan
       x="1310.91"
       y="151.36"
       id="tspan28" />
  </text>
  <text
     x="523.76001"
     y="258.22"
     transform="scale(4.0128,0.2492)"
     id="text30"
     style="font-size:46.95399857px;text-anchor:middle;font-family:Arial" />
  <text
     x="239.33"
     y="-29.9"
     id="text32"
     style="font-size:129.22999573px;line-height:125%;letter-spacing:0;word-spacing:0;font-family:Gentium Book Basic">
    <tspan
       x="239.33"
       y="-29.9"
       id="tspan34" />
  </text>
  <text
     x="256.72"
     y="-469.13"
     transform="scale(4.0128,0.2492)"
     id="text36"
     style="font-size:46.95399857px;text-anchor:middle;font-family:Arial" />
  <text
     x="1337.38"
     y="-246.37"
     id="text38"
     style="font-size:129.22999573px;line-height:125%;letter-spacing:0;word-spacing:0;font-family:Gentium Book Basic">
    <tspan
       x="1337.38"
       y="-246.37"
       id="tspan40" />
  </text>
  <text
     x="530.35999"
     y="-1337.8"
     transform="scale(4.0128,0.2492)"
     id="text42"
     style="font-size:46.95399857px;text-anchor:middle;font-family:Arial" />
  <text
     x="1918.65"
     y="-326.37"
     id="text44"
     style="font-size:129.22999573px;line-height:125%;letter-spacing:0;word-spacing:0;font-family:Gentium Book Basic">
    <tspan
       x="1918.65"
       y="-326.37"
       id="tspan46" />
  </text>
  <text
     x="675.21002"
     y="-1658.83"
     transform="scale(4.0128,0.2492)"
     id="text48"
     style="font-size:46.95399857px;text-anchor:middle;font-family:Arial" />
  <text
     x="1529.53"
     y="-798.77002"
     id="text50"
     style="font-size:129.22999573px;line-height:125%;letter-spacing:0;word-spacing:0;font-family:Gentium Book Basic">
    <tspan
       x="1529.53"
       y="-798.77002"
       id="tspan52" />
  </text>
  <text
     x="578.23999"
     y="-3554.48"
     transform="scale(4.0128,0.2492)"
     id="text54"
     style="font-size:46.95399857px;text-anchor:middle;font-family:Arial" />
  <text
     x="2110.79"
     y="-878.78003"
     id="text56"
     style="font-size:129.22999573px;line-height:125%;letter-spacing:0;word-spacing:0;font-family:Gentium Book Basic">
    <tspan
       x="2110.79"
       y="-878.78003"
       id="tspan58" />
  </text>
  <text
     x="723.09003"
     y="-3875.52"
     transform="scale(4.0128,0.2492)"
     id="text60"
     style="font-size:46.95399857px;text-anchor:middle;font-family:Arial" />
  <text
     x="277.98999"
     y="535.94"
     id="text62"
     style="font-size:208.33000183px;line-height:125%;letter-spacing:0;word-spacing:0;font-family:Gentium Book Basic">
    <tspan
       x="277.98999"
       y="535.94"
       id="tspan64" />
  </text>
  <path
     d="m 127.12,191 64.837,-64.11 64.05,64.09 64.08,-64.08 64.55,64.62 -63.924,64.19 64.16,64.19 -64.27,64.957 -64.32,-64.45 -64.41,64.69 -64.5,-65.49 64.12,-64.12"
     inkscape:connector-curvature="0"
     id="path66"
     style="fill:#ffffff" />
</svg>
